assets/icons/linkedin.svg

<?xml version="1.0" encoding="UTF-8"?>
<svg width="14px" height="15px" viewBox="0 0 14 15" version="1.1" xmlns="http://www.w3.org/2000/svg" xmlns:xlink="http://www.w3.org/1999/xlink">
    <!-- Generator: Sketch 64 (93537) - https://sketch.com -->
    <title>linkedin</title>
    <desc>Created with Sketch.</desc>
    <g id="Page-1" stroke="none" stroke-width="1" fill="none" fill-rule="evenodd">
        <g id="Daxil-ol---Qeydiyyat" transform="translate(-1351.000000, -862.000000)" fill="#FFFFFF" fill-rule="nonzero">
            <g id="BOTTOM" transform="translate(0.000000, 761.000000)">
                <g id="linkedin" transform="translate(1351.000000, 101.000000)">
                    <path d="M3.05740356,4.44213867 L0.528717041,4.44213867 C0.245246895,4.44213867 0.0146484375,4.67273713 0.0146484375,4.95620728 L0.0146484375,14.4860458 C0.0146484375,14.7694015 0.245246895,15 0.528717041,15 L3.05740356,15 C3.34075928,15 3.57135773,14.7694015 3.57135773,14.4860458 L3.57135773,4.95620728 C3.57135773,4.67273713 3.34075928,4.44213867 3.05740356,4.44213867 Z M2.69119263,14.1198349 L0.894813545,14.1198349 L0.894813545,5.32230378 L2.69119263,5.32230378 L2.69119263,14.1198349 Z" id="Shape"></path>
                    <path d="M1.7930603,0 C0.804290771,0 0,0.804290771 0,1.79294587 C0,2.7817154 0.804290771,3.58600617 1.7930603,3.58600617 C2.78160094,3.58600617 3.58600617,2.7817154 3.58600617,1.79294587 C3.58600617,0.804290771 2.7817154,0 1.7930603,0 Z M1.7930603,2.70584106 C1.2896347,2.70584106 0.880165107,2.29637145 0.880165107,1.79294587 C0.880165107,1.2896347 1.2896347,0.880165107 1.7930603,0.880165107 C2.29637145,0.880165107 2.70584106,1.2896347 2.70584106,1.79294587 C2.70584106,2.29625701 2.29637145,2.70584106 1.7930603,2.70584106 Z" id="Shape"></path>
                    <path d="M11.7494202,5.55942536 C11.1449432,5.05485533 10.3764725,4.78500366 9.58637238,4.7996521 C9.09564973,4.80869294 8.61614227,4.92702483 8.18161011,5.14125823 L8.18161011,4.93320466 C8.18161011,4.6620941 7.96176911,4.44225311 7.69065855,4.44225311 L5.1159668,4.44225311 C4.84485627,4.44225311 4.62501527,4.6620941 4.62501527,4.93320466 L4.62501527,14.5090485 C4.62501527,14.7802734 4.84485627,15 5.1159668,15 L7.74147035,15 C7.98454283,15 8.18161011,14.8029328 8.18161011,14.5599747 L8.18161011,8.8506317 C8.18161011,8.36185456 8.56407164,7.94826507 9.05250551,7.93373109 C9.56016539,7.91873933 9.97787476,8.32717896 9.97787476,8.83152009 L9.97787476,14.56913 C9.97787476,14.8070526 10.1708221,15 10.4087448,15 L12.9320526,15 C13.1699753,15 13.3629227,14.8070526 13.3629227,14.56913 L13.3629227,9.00604248 C13.3629227,7.67166138 12.7748108,6.41532896 11.7494202,5.55942536 L11.7494202,5.55942536 Z M12.4827576,14.1198349 L10.8581543,14.1198349 L10.8581543,8.83152009 C10.8581543,7.8509903 10.0603867,7.05322266 9.07974243,7.05322266 C8.09921265,7.05322266 7.301445,7.8509903 7.301445,8.83152009 L7.301445,14.1198349 L5.50518035,14.1198349 L5.50518035,5.32230378 L7.301445,5.32230378 L7.301445,5.96191406 L7.30201723,5.96191406 C7.30190276,6.06559752 7.33795166,6.16973877 7.41210937,6.25362396 C7.57312775,6.43558503 7.85133363,6.45252229 8.03329468,6.29138947 C8.46691131,5.90755462 9.02423859,5.69034577 9.60262298,5.67958831 C10.1815796,5.66860198 10.7434845,5.86612702 11.1854553,6.23508454 C12.0100021,6.92333221 12.4827576,7.9332733 12.4827576,9.00604248 L12.4827576,14.1198349 Z" id="Shape"></path>
                </g>
            </g>
        </g>
    </g>
</svg>

<svg width="14" height="15" xmlns="http://www.w3.org/2000/svg"><g fill="#FFF" fill-rule="nonzero"><path d="M3.057 4.442H.53a.515.515 0 00-.514.514v9.53c0 .283.23.514.514.514h2.528c.284 0 .514-.23.514-.514v-9.53a.515.515 0 00-.514-.514zm-.366 9.678H.895V5.322H2.69v8.798zM1.793 0C.804 0 0 .804 0 1.793c0 .989.804 1.793 1.793 1.793.989 0 1.793-.804 1.793-1.793C3.586.804 2.782 0 1.793 0zm0 2.706a.914.914 0 010-1.826.914.914 0 010 1.826zM11.75 5.56a3.28 3.28 0 00-2.164-.76c-.49.009-.97.127-1.404.341v-.208a.491.491 0 00-.491-.49H5.116a.491.491 0 00-.491.49v9.576c0 .271.22.491.491.491h2.625a.44.44 0 00.44-.44V8.85a.91.91 0 01.872-.916.9.9 0 01.925.898v5.737c0 .238.193.431.43.431h2.524a.43.43 0 00.43-.43V9.005c0-1.334-.587-2.59-1.613-3.447zm.733 8.56h-1.625V8.832A1.78 1.78 0 009.08 7.053 1.78 1.78 0 007.3 8.832v5.288H5.505V5.322h1.796v.64h.001a.44.44 0 00.731.33c.434-.384.991-.602 1.57-.612a2.398 2.398 0 011.582.555 3.6 3.6 0 011.298 2.771v5.114z"/></g></svg>
